dist/assets/img/svg/arrow-sm.svg

<svg width="6" height="11" viewBox="0 0 6 11" fill="none" xmlns="http://www.w3.org/2000/svg">
<path id="Vector" d="M1.18894 10.7823L5.84793 5.90633C5.90323 5.84828 5.9423 5.7854 5.96516 5.71768C5.98839 5.64996 6 5.5774 6 5.5C6 5.4226 5.98839 5.35004 5.96516 5.28232C5.9423 5.2146 5.90323 5.15171 5.84793 5.09367L1.18894 0.203166C1.05991 0.067722 0.898617 0 0.705069 0C0.51152 0 0.345622 0.0725594 0.207373 0.217678C0.0691242 0.362797 0 0.532102 0 0.725594C0 0.919085 0.0691242 1.08839 0.207373 1.23351L4.27189 5.5L0.207373 9.76649C0.0783405 9.90193 0.0138245 10.0687 0.0138245 10.2669C0.0138245 10.4654 0.0829492 10.6372 0.221198 10.7823C0.359447 10.9274 0.520737 11 0.705069 11C0.8894 11 1.05069 10.9274 1.18894 10.7823Z" fill="white"/>
</svg>

<svg width="6" height="11" fill="none" xmlns="http://www.w3.org/2000/svg"><path d="M1.189 10.782l4.659-4.876a.51.51 0 00.117-.188A.666.666 0 006 5.5a.666.666 0 00-.035-.218.51.51 0 00-.117-.188L1.188.204A.64.64 0 00.706 0a.663.663 0 00-.498.218A.713.713 0 000 .726c0 .193.07.362.207.508L4.272 5.5.207 9.766a.698.698 0 00-.193.5c0 .2.069.371.207.516a.649.649 0 00.968 0z" fill="#fff"/></svg>725594 0.207373 0.217678C0.0691242 0.362797 0 0.532102 0 0.725594C0 0.919085 0.0691242 1.08839 0.207373 1.23351L4.27189 5.5L0.207373 9.76649C0.0783405 9.90193 0.0138245 10.0687 0.0138245 10.2669C0.0138245 10.4654 0.0829492 10.6372 0.221198 10.7823C0.359447 10.9274 0.520737 11 0.705069 11C0.8894 11 1.05069 10.9274 1.18894 10.7823Z" fill="white"/>
</svg>
